packages/ui-toolkit/src/icons/svg/icon_upload_manifest.svg

<?xml version="1.0" encoding="UTF-8"?>
<svg width="18px" height="24px" viewBox="0 0 18 24" version="1.1" xmlns="http://www.w3.org/2000/svg" xmlns:xlink="http://www.w3.org/1999/xlink">
    <!-- Generator: Sketch 43.2 (39069) - http://www.bohemiancoding.com/sketch -->
    <title>Fill 1</title>
    <desc>Created with Sketch.</desc>
    <defs></defs>
    <g id="Page-1" stroke="none" stroke-width="1" fill="none" fill-rule="evenodd">
        <g id="creating-deployment-group:-editing-manifest" transform="translate(-196.000000, -575.000000)" fill="#646464">
            <g id="button:-upload" transform="translate(183.000000, 564.000000)">
                <g id="icon:-upload" transform="translate(13.000000, 11.000000)">
                    <path d="M5.0004,-0.0003 L0.0004,4.0007 L0.0004,23.9997 L18.0004,23.9997 L18.0004,-0.0003 L5.0004,-0.0003 Z M1.9994,4.9997 L5.0004,4.9997 L5.0004,2.0007 L16.0004,2.0007 L16.0004,22.0007 L1.9994,22.0007 L1.9994,4.9997 Z M9,9.9463 L9.044,10.0003 L8.956,10.0003 L9,9.9463 Z M8,11.1533 L8,17.0003 L10,17.0003 L10,11.1533 L11.23,12.6383 L12.77,11.3623 L9,6.8113 L5.23,11.3623 L6.77,12.6383 L8,11.1533 Z" id="Fill-1"></path>
                </g>
            </g>
        </g>
    </g>
</svg>

<svg width="18" height="24" viewBox="0 0 18 24" xmlns="http://www.w3.org/2000/svg"><title>Fill 1</title><path d="M5 0L0 4v20h18V0H5zM2 5h3V2h11v20H2V5zm7 4.946l.044.054h-.088L9 9.946zm-1 1.207V17h2v-5.847l1.23 1.485 1.54-1.276L9 6.812l-3.77 4.55 1.54 1.276L8 11.153z" fill="#646464" fill-rule="evenodd"/></svg>
